X:0
T:The Conundrum
G:march
M:2/4
L:1/16
Q:1/4=84
K:AMix
   A>B|c2A>c  e>fc2 |A>ce>a f2e>f |a2e>f e>fc2|A>ce>c B2A>B    |
       c2A>c  e>fc2 |A>ce>a f2e>f |a2e>f e>fc2|B2A2   A2      :|
   f>g|a2e>f  a>ea2 |e>fa>e f2e>f |a2e>f e>fc2|A>ce>c B2 [1 f>g|
       a2e>f  a>ea2 |e>fa>e f2e>f |a2e>f e>fc2|B2A2   A2      :|
[2 A>B|c2A>c  e>fc2 |A>ce>a f2e>f |a2e>f e>fc2|B2A2   A2      ||
   e2 |A>Bc2  A>Bc<A|c<eA>B c2e2  |f>ga2 e>fc2|A>ce>c B2e2     |
       A>Bc2  A>Bc<A|c<eA>B c2e2  |f>ga2 e>fc2|B2A2   A2      :|
   a2 |f>ea>e f2e<a |f2e<a  f>ea>e|f>ga2 e>fc2|A>ce>c B2 [1 a2 |
       f>ea>e f2e<a |f2e<a  f>ea>e|f>ga2 e>fc2|B2A2   A2      :|
[2 A>B|c2d>c  e>Ac2 |d>ce>A f2e>f |a2e>f e<ac2|B2A2   A2      |]

This procedure, of only filling in a gap at the very end of the tune to
create a climax, is common in all kinds of Scottish music.  The idea goes
back a very long way.  Here is a mediaeval piece in the style of a French
religious song, and perhaps composed by a Frenchman; it's one of the
oldest pieces of music known from Scotland.  It's in the dorian mode, but
the first three sections are dorian/minor hexatonic, with progressively
more dorian E's introduced as the piece builds to a climax.

